svg/file_marker_outline.svg

<svg xmlns="http://www.w3.org/2000/svg" viewBox="0 0 24 24"><path d="M14.55 20c.45.76.95 1.44 1.36 2H6c-1.11 0-2-.89-2-2V4a2 2 0 0 1 2-2h8l6 6v2.22c-.5-.14-1-.22-1.5-.22-.17 0-.33 0-.5.03V9h-5V4H6v16zM22 15.5c0 2.6-3.5 6.5-3.5 6.5S15 18.1 15 15.5c0-1.9 1.6-3.5 3.5-3.5s3.5 1.6 3.5 3.5m-2.3.1c0-.6-.6-1.2-1.2-1.2s-1.2.5-1.2 1.2c0 .6.5 1.2 1.2 1.2s1.3-.6 1.2-1.2"/></svg>

<svg xmlns="http://www.w3.org/2000/svg" id="mdi-file-marker-outline" viewBox="0 0 24 24"><path d="M14.55 20C15 20.76 15.5 21.44 15.91 22H6C4.89 22 4 21.11 4 20V4C4 2.9 4.89 2 6 2H14L20 8V10.22C19.5 10.08 19 10 18.5 10C18.33 10 18.17 10 18 10.03V9H13V4H6V20H14.55M22 15.5C22 18.1 18.5 22 18.5 22S15 18.1 15 15.5C15 13.6 16.6 12 18.5 12S22 13.6 22 15.5M19.7 15.6C19.7 15 19.1 14.4 18.5 14.4S17.3 14.9 17.3 15.6C17.3 16.2 17.8 16.8 18.5 16.8S19.8 16.2 19.7 15.6Z" /></svg>
